!!!SOCIAL_FUNCTION:	hand game songs
!!!PDT:	1958
!!!OTL: No_35_Hand-Game_Song_(a).krn
!!!REG: Northern California
!!!LANG: Non-Tone
!!!LING_GROUP: Penutian
**kern
*staff1
=1-
*clefF4
*k[b-]
*M2/4
4r
8.F\L
16F\Jk
=2!|:
4G\
8.D\L
16D\Jk
=3
8D\
8r
(8.A\L
16G\Jk)
=4
4F\
8.C/L
16C/Jk
=5
8F\
8r
8.F\L
16F\Jk
=6
4G\
8.D\L
16D\Jk
=7
8D\
8r
8.G\L
16F\Jk
=8
=
8.F/L
16C/Jk
8.C/L
16C/Jk
=9
8F\
8r
8.F\L
16F\Jk
=10:|!
4F\
8.C/L
16C/Jk
=11
4F\
4r
==
*-
